images/top-icon.svg

<svg width="86" height="82" viewBox="0 0 86 82" fill="none" xmlns="http://www.w3.org/2000/svg">
<mask id="path-1-inside-1_1_603" fill="white">
<path d="M12.5868 42.5507C11.8057 41.7696 11.8057 40.5033 12.5868 39.7223L17.181 35.128C21.8673 30.4417 29.4653 30.4417 34.1516 35.128L38.7458 39.7223C39.5268 40.5033 39.5268 41.7696 38.7458 42.5507L34.1515 47.1449C29.4653 51.8312 21.8673 51.8312 17.181 47.1449L12.5868 42.5507Z"/>
</mask>
<path d="M12.5868 42.5507C11.8057 41.7696 11.8057 40.5033 12.5868 39.7223L17.181 35.128C21.8673 30.4417 29.4653 30.4417 34.1516 35.128L38.7458 39.7223C39.5268 40.5033 39.5268 41.7696 38.7458 42.5507L34.1515 47.1449C29.4653 51.8312 21.8673 51.8312 17.181 47.1449L12.5868 42.5507Z" stroke="white" stroke-width="8" mask="url(#path-1-inside-1_1_603)"/>
<mask id="path-2-inside-2_1_603" fill="white">
<path d="M46.6897 42.5507C45.9086 41.7696 45.9086 40.5033 46.6897 39.7223L51.2839 35.128C55.9702 30.4417 63.5682 30.4417 68.2545 35.128L72.8487 39.7223C73.6297 40.5033 73.6297 41.7696 72.8487 42.5507L68.2545 47.1449C63.5682 51.8312 55.9702 51.8312 51.2839 47.1449L46.6897 42.5507Z"/>
</mask>
<path d="M46.6897 42.5507C45.9086 41.7696 45.9086 40.5033 46.6897 39.7223L51.2839 35.128C55.9702 30.4417 63.5682 30.4417 68.2545 35.128L72.8487 39.7223C73.6297 40.5033 73.6297 41.7696 72.8487 42.5507L68.2545 47.1449C63.5682 51.8312 55.9702 51.8312 51.2839 47.1449L46.6897 42.5507Z" stroke="white" stroke-width="8" mask="url(#path-2-inside-2_1_603)"/>
<mask id="path-3-inside-3_1_603" fill="white">
<path d="M41.3035 11.0055C42.0845 10.2245 43.3509 10.2245 44.1319 11.0055L48.7262 15.5998C53.4125 20.286 53.4124 27.884 48.7262 32.5703L44.1319 37.1645C43.3509 37.9456 42.0845 37.9456 41.3035 37.1645L36.7093 32.5703C32.023 27.884 32.023 20.286 36.7093 15.5998L41.3035 11.0055Z"/>
</mask>
<path d="M41.3035 11.0055C42.0845 10.2245 43.3509 10.2245 44.1319 11.0055L48.7262 15.5998C53.4125 20.286 53.4124 27.884 48.7262 32.5703L44.1319 37.1645C43.3509 37.9456 42.0845 37.9456 41.3035 37.1645L36.7093 32.5703C32.023 27.884 32.023 20.286 36.7093 15.5998L41.3035 11.0055Z" stroke="white" stroke-width="8" mask="url(#path-3-inside-3_1_603)"/>
<mask id="path-4-inside-4_1_603" fill="white">
<path d="M41.0796 43.4142C41.8606 42.6332 43.1269 42.6332 43.908 43.4142L48.5022 48.0084C53.1885 52.6947 53.1885 60.2927 48.5022 64.979L43.908 69.5732C43.1269 70.3543 41.8606 70.3543 41.0796 69.5732L36.4853 64.979C31.799 60.2927 31.799 52.6947 36.4853 48.0084L41.0796 43.4142Z"/>
</mask>
<path d="M41.0796 43.4142C41.8606 42.6332 43.1269 42.6332 43.908 43.4142L48.5022 48.0084C53.1885 52.6947 53.1885 60.2927 48.5022 64.979L43.908 69.5732C43.1269 70.3543 41.8606 70.3543 41.0796 69.5732L36.4853 64.979C31.799 60.2927 31.799 52.6947 36.4853 48.0084L41.0796 43.4142Z" stroke="white" stroke-width="8" mask="url(#path-4-inside-4_1_603)"/>
<path d="M83.7158 41.0001C83.7158 42.5144 83.0629 43.851 82.0107 45.511C81.8492 45.7659 81.6738 46.0337 81.4905 46.3136C80.5761 47.7099 79.4651 49.4065 78.8918 51.2998C78.2931 53.2769 78.0813 55.4687 77.8944 57.4021C77.8428 57.9358 77.7932 58.4497 77.7378 58.9341C77.4624 61.3425 77.0471 63.2246 75.9955 64.6642C74.9529 66.0916 73.283 67.0709 71.0829 68.0799C70.6468 68.2799 70.182 68.4836 69.7002 68.6948C67.9279 69.4715 65.9246 70.3495 64.2694 71.5163C62.6496 72.6582 61.454 74.2569 60.4964 75.5373C60.3351 75.753 60.1805 75.9596 60.0319 76.1535C58.9036 77.625 57.9888 78.5807 56.7328 79.0269C54.8923 79.6807 52.9015 79.7111 50.5744 79.5178C49.9034 79.4621 49.1793 79.3836 48.4221 79.3016C46.7071 79.1157 44.8224 78.9115 43 78.9115C41.1776 78.9115 39.2929 79.1157 37.5779 79.3016C36.8208 79.3836 36.0966 79.4621 35.4256 79.5178C33.0985 79.7111 31.1077 79.6807 29.2673 79.0269C27.588 78.4304 26.2394 77.3724 24.7999 76.0045C24.4364 75.6591 24.054 75.2791 23.6535 74.8811C22.5599 73.7945 21.3313 72.5737 19.9838 71.5554C18.6459 70.5443 17.0749 69.6678 15.6535 68.8747C15.1672 68.6034 14.6984 68.3418 14.2624 68.088C12.4324 67.0225 10.9782 65.9972 10.0045 64.6642C8.89303 63.1427 8.30155 61.1646 7.8279 58.7727C7.69845 58.119 7.57571 57.4152 7.44857 56.6862C7.14074 54.921 6.80711 53.0079 6.2899 51.2998C5.77312 49.5931 4.92955 48.0246 4.21134 46.6891C4.01889 46.3312 3.83545 45.9901 3.6697 45.6676C2.83635 44.0458 2.28418 42.6388 2.28418 41.0001C2.28418 39.4172 2.99082 37.7184 4.06699 35.6886C4.27007 35.3055 4.49085 34.904 4.71917 34.4888C5.59617 32.8939 6.58443 31.0966 7.10821 29.3668C7.69421 27.4316 7.91048 25.4823 8.09541 23.8154C8.14942 23.3286 8.20076 22.8659 8.25785 22.4347C8.52305 20.4316 8.91887 18.8221 10.0045 17.3359C10.956 16.0334 12.3751 15.0928 14.2049 14.1068C14.5878 13.9004 14.9976 13.6884 15.4235 13.468C16.8966 12.7056 18.5633 11.8431 19.9838 10.7696C21.4023 9.69765 22.6762 8.36648 23.803 7.18899C24.1636 6.81224 24.5091 6.45122 24.8394 6.11947C26.2914 4.66127 27.6255 3.55651 29.2673 2.97326C31.1077 2.31942 33.0985 2.28909 35.4256 2.48231C36.0967 2.53803 36.8208 2.61649 37.5779 2.69854C39.2929 2.88437 41.1776 3.0886 43 3.0886C44.8224 3.0886 46.7071 2.88437 48.4221 2.69854C49.1793 2.61649 49.9034 2.53803 50.5744 2.48231C52.9015 2.28909 54.8923 2.31942 56.7327 2.97326C57.9505 3.40587 58.8579 4.39616 60.0016 5.96852C60.1427 6.1626 60.2893 6.36898 60.4422 6.58414C61.4044 7.93885 62.6137 9.64146 64.2694 10.8086C65.993 12.0236 68.1946 12.9214 70.0972 13.6972C70.551 13.8822 70.9879 14.0604 71.3971 14.2342C73.7805 15.2465 75.2531 16.1123 75.8946 17.1836C76.708 18.542 77.1146 20.2265 77.482 22.3688C77.5513 22.7735 77.6195 23.1965 77.6899 23.6336C77.9748 25.4021 78.297 27.4026 78.8918 29.3668C79.4156 31.0966 80.4038 32.8939 81.2809 34.4888C81.5092 34.904 81.7299 35.3055 81.933 35.6886C83.0092 37.7184 83.7158 39.4172 83.7158 41.0001Z" stroke="white" stroke-width="4"/>
</svg>

<svg xmlns="http://www.w3.org/2000/svg" width="86" height="82" fill="none"><mask id="a" fill="#fff"><path d="M12.587 42.55a2 2 0 0 1 0-2.828l4.594-4.594c4.686-4.686 12.284-4.686 16.97 0l4.595 4.594a2 2 0 0 1 0 2.829l-4.595 4.594c-4.686 4.686-12.284 4.686-16.97 0l-4.594-4.594Z"/></mask><path stroke="#fff" stroke-width="8" d="M12.587 42.55a2 2 0 0 1 0-2.828l4.594-4.594c4.686-4.686 12.284-4.686 16.97 0l4.595 4.594a2 2 0 0 1 0 2.829l-4.595 4.594c-4.686 4.686-12.284 4.686-16.97 0l-4.594-4.594Z" mask="url(#a)"/><mask id="b" fill="#fff"><path d="M46.69 42.55a2 2 0 0 1 0-2.828l4.594-4.594c4.686-4.686 12.284-4.686 16.97 0l4.595 4.594a2 2 0 0 1 0 2.829l-4.595 4.594c-4.686 4.686-12.284 4.686-16.97 0L46.69 42.55Z"/></mask><path stroke="#fff" stroke-width="8" d="M46.69 42.55a2 2 0 0 1 0-2.828l4.594-4.594c4.686-4.686 12.284-4.686 16.97 0l4.595 4.594a2 2 0 0 1 0 2.829l-4.595 4.594c-4.686 4.686-12.284 4.686-16.97 0L46.69 42.55Z" mask="url(#b)"/><mask id="c" fill="#fff"><path d="M41.303 11.005a2 2 0 0 1 2.829 0l4.594 4.595c4.687 4.686 4.686 12.284 0 16.97l-4.594 4.594a2 2 0 0 1-2.828 0l-4.595-4.594c-4.686-4.686-4.686-12.284 0-16.97l4.594-4.595Z"/></mask><path stroke="#fff" stroke-width="8" d="M41.303 11.005a2 2 0 0 1 2.829 0l4.594 4.595c4.687 4.686 4.686 12.284 0 16.97l-4.594 4.594a2 2 0 0 1-2.828 0l-4.595-4.594c-4.686-4.686-4.686-12.284 0-16.97l4.594-4.595Z" mask="url(#c)"/><mask id="d" fill="#fff"><path d="M41.08 43.414a2 2 0 0 1 2.828 0l4.594 4.594c4.686 4.687 4.686 12.285 0 16.971l-4.594 4.594a2 2 0 0 1-2.828 0l-4.595-4.594c-4.686-4.686-4.686-12.284 0-16.97l4.595-4.595Z"/></mask><path stroke="#fff" stroke-width="8" d="M41.08 43.414a2 2 0 0 1 2.828 0l4.594 4.594c4.686 4.687 4.686 12.285 0 16.971l-4.594 4.594a2 2 0 0 1-2.828 0l-4.595-4.594c-4.686-4.686-4.686-12.284 0-16.97l4.595-4.595Z" mask="url(#d)"/><path stroke="#fff" stroke-width="4" d="M83.716 41c0 1.514-.653 2.851-1.705 4.511-.162.255-.337.523-.52.803-.915 1.396-2.026 3.093-2.6 4.986-.598 1.977-.81 4.169-.997 6.102-.051.534-.1 1.048-.156 1.532-.276 2.409-.69 4.29-1.742 5.73-1.043 1.428-2.713 2.407-4.913 3.416-.436.2-.901.404-1.383.615-1.772.777-3.775 1.655-5.43 2.821-1.62 1.142-2.816 2.74-3.774 4.021-.16.216-.316.423-.464.616-1.128 1.472-2.043 2.428-3.3 2.874-1.84.654-3.83.684-6.158.49-.67-.055-1.395-.133-2.152-.215-1.715-.186-3.6-.39-5.422-.39-1.822 0-3.707.204-5.422.39-.757.082-1.481.16-2.152.216-2.328.193-4.318.163-6.159-.491-1.679-.597-3.028-1.655-4.467-3.023a73.51 73.51 0 0 1-1.146-1.123c-1.094-1.087-2.323-2.307-3.67-3.326-1.338-1.01-2.91-1.887-4.33-2.68a89.302 89.302 0 0 1-1.392-.787c-1.83-1.066-3.284-2.09-4.258-3.424-1.111-1.521-1.702-3.5-2.176-5.891-.13-.654-.252-1.358-.38-2.087-.307-1.765-.64-3.678-1.158-5.386-.517-1.707-1.36-3.275-2.079-4.61-.192-.359-.376-.7-.541-1.022-.834-1.622-1.386-3.03-1.386-4.668 0-1.583.707-3.282 1.783-5.311.203-.383.424-.785.652-1.2.877-1.595 1.865-3.392 2.39-5.122.585-1.935.801-3.885.986-5.552.054-.486.106-.95.163-1.38.265-2.003.66-3.613 1.747-5.1.951-1.302 2.37-2.242 4.2-3.228.383-.207.793-.419 1.219-.639 1.473-.762 3.14-1.625 4.56-2.698 1.418-1.072 2.692-2.404 3.819-3.581.36-.377.706-.738 1.036-1.07 1.452-1.458 2.787-2.562 4.428-3.146 1.84-.654 3.832-.684 6.159-.49.67.055 1.395.133 2.152.216 1.715.185 3.6.39 5.422.39 1.822 0 3.707-.205 5.422-.39.757-.083 1.481-.161 2.152-.217 2.328-.193 4.318-.163 6.159.491 1.218.433 2.125 1.423 3.269 2.996l.44.615c.962 1.355 2.172 3.057 3.827 4.225 1.724 1.215 3.926 2.112 5.828 2.888.454.185.89.363 1.3.537 2.383 1.012 3.856 1.878 4.498 2.95.813 1.358 1.22 3.043 1.587 5.185.07.404.138.828.208 1.265.285 1.768.607 3.769 1.202 5.733.524 1.73 1.512 3.527 2.389 5.122.228.415.449.817.652 1.2 1.076 2.03 1.783 3.728 1.783 5.311Z"/></svg>
